SVG-Icons/Socials/slack-blue-gradient.svg

<svg width="24" height="25" viewBox="0 0 24 25" fill="none" xmlns="http://www.w3.org/2000/svg">
<path d="M0.0934936 12.5656C-0.0567405 13.1528 0.032421 13.7756 0.341363 14.297C0.650306 14.8184 1.15372 15.1957 1.74087 15.3459C2.32801 15.4962 2.95079 15.407 3.47219 15.0981C3.9936 14.7891 4.37092 14.2857 4.52116 13.6986L5.08762 11.4847L2.87378 10.9183C2.28664 10.768 1.66386 10.8572 1.14246 11.1661C0.621051 11.4751 0.243728 11.9785 0.0934936 12.5656V12.5656ZM15.0309 12.4486C15.618 12.5988 16.2408 12.5096 16.7622 12.2007C17.2836 11.8917 17.661 11.3883 17.8112 10.8012L19.3208 4.90132C19.471 4.31418 19.3819 3.6914 19.0729 3.16999C18.764 2.64859 18.2606 2.27127 17.6734 2.12103C17.0863 1.9708 16.4635 2.05996 15.9421 2.3689C15.4207 2.67784 15.0434 3.18126 14.8931 3.76841L13.3835 9.66827C13.3086 9.96086 13.2925 10.2654 13.336 10.5643C13.3796 10.8631 13.4819 11.1504 13.6372 11.4095C13.7924 11.6685 13.9975 11.8943 14.2405 12.0736C14.4835 12.2529 14.7597 12.3823 15.053 12.4542L15.0309 12.4486ZM23.7 12.308C23.8502 11.7208 23.7611 11.098 23.4521 10.5766C23.1432 10.0552 22.6397 9.67791 22.0526 9.52767C21.4655 9.37744 20.8427 9.4666 20.3213 9.77554C19.7999 10.0845 19.4225 10.5879 19.2723 11.175L18.7059 13.3889L20.9197 13.9553C21.2126 14.0366 21.5188 14.0585 21.8203 14.02C22.1218 13.9814 22.4126 13.883 22.6757 13.7307C22.9387 13.5783 23.1687 13.375 23.3522 13.1327C23.5357 12.8903 23.669 12.6138 23.7443 12.3193L23.7 12.308ZM8.78471 12.4307C8.19757 12.2805 7.57479 12.3696 7.05339 12.6786C6.53198 12.9875 6.15466 13.4909 6.00442 14.0781L4.49481 19.9779C4.34458 20.5651 4.43374 21.1879 4.74268 21.7093C5.05163 22.2307 5.55504 22.608 6.14219 22.7582C6.72933 22.9085 7.35211 22.8193 7.87351 22.5104C8.39492 22.2014 8.77224 21.698 8.92248 21.1109L10.4321 15.211C10.5823 14.6239 10.4932 14.0011 10.1842 13.4797C9.87528 12.9583 9.37186 12.5809 8.78471 12.4307ZM13.1639 19.8374L10.9501 19.2709L10.3836 21.4847C10.2716 21.9226 10.2919 22.3838 10.442 22.8101C10.5921 23.2364 10.8653 23.6087 11.2269 23.8797C11.5886 24.1508 12.0225 24.3085 12.4738 24.333C12.9251 24.3575 13.3735 24.2475 13.7623 24.0171C14.1511 23.7868 14.4629 23.4462 14.6582 23.0387C14.8535 22.6311 14.9236 22.1747 14.8595 21.7273C14.7955 21.2799 14.6002 20.8616 14.2984 20.5252C13.9965 20.1887 13.6018 19.9494 13.1639 19.8374ZM20.5844 15.4499L14.6735 13.9375C14.0864 13.7873 13.4636 13.8764 12.9422 14.1854C12.4208 14.4943 12.0435 14.9977 11.8932 15.5849C11.743 16.172 11.8321 16.7948 12.1411 17.3162C12.45 17.8376 12.9534 18.2149 13.5406 18.3652L19.4515 19.8776C20.0387 20.0278 20.6614 19.9387 21.1828 19.6297C21.7043 19.3208 22.0816 18.8174 22.2318 18.2302C22.382 17.6431 22.2929 17.0203 21.9839 16.4989C21.675 15.9775 21.1716 15.6002 20.5844 15.4499V15.4499ZM10.2972 6.51978L4.38623 5.00734C3.79908 4.8571 3.17631 4.94626 2.6549 5.25521C2.13349 5.56415 1.75617 6.06757 1.60594 6.65471C1.4557 7.24185 1.54486 7.86463 1.85381 8.38604C2.16275 8.90744 2.66617 9.28477 3.25331 9.435L9.16424 10.9474C9.75139 11.0977 10.3742 11.0085 10.8956 10.6996C11.417 10.3906 11.7943 9.88721 11.9445 9.30007C12.0948 8.71293 12.0056 8.09015 11.6967 7.56874C11.3877 7.04734 10.8843 6.67001 10.2972 6.51978V6.51978ZM11.8068 0.619917C11.2196 0.469683 10.5968 0.558845 10.0754 0.867787C9.55404 1.17673 9.17671 1.68015 9.02648 2.26729C8.87625 2.85444 8.96541 3.47721 9.27435 3.99862C9.58329 4.52002 10.0867 4.89735 10.6739 5.04758L12.8877 5.61404L13.4541 3.40021C13.6044 2.81306 13.5152 2.19029 13.2063 1.66888C12.8973 1.14747 12.3939 0.770151 11.8068 0.619917Z" fill="url(#paint0_linear_652_2565)"/>
<defs>
<linearGradient id="paint0_linear_652_2565" x1="0.489071" y1="-28.994" x2="44.8914" y2="21.9681" gradientUnits="userSpaceOnUse">
<stop stop-color="#3D65AF"/>
<stop offset="0.187557" stop-color="#2372B8"/>
<stop offset="0.609939" stop-color="#00B8BB"/>
</linearGradient>
</defs>
</svg>

<svg xmlns="http://www.w3.org/2000/svg" fill="none" viewBox="0 0 24 25"><path fill="url(#a)" d="M.093 12.566a2.285 2.285 0 0 0 4.428 1.133l.567-2.214-2.214-.567a2.285 2.285 0 0 0-2.78 1.648Zm14.938-.117a2.285 2.285 0 0 0 2.78-1.648l1.51-5.9a2.285 2.285 0 1 0-4.428-1.133l-1.51 5.9a2.286 2.286 0 0 0 1.67 2.786l-.022-.005Zm8.669-.141a2.285 2.285 0 0 0-4.428-1.133l-.566 2.214 2.214.566a2.285 2.285 0 0 0 2.824-1.636l-.044-.011Zm-14.915.123a2.285 2.285 0 0 0-2.78 1.647l-1.51 5.9a2.285 2.285 0 0 0 4.427 1.133l1.51-5.9a2.285 2.285 0 0 0-1.647-2.78Zm4.379 7.406-2.214-.566-.566 2.214a2.285 2.285 0 1 0 2.78-1.648Zm7.42-4.387-5.91-1.512a2.285 2.285 0 1 0-1.133 4.427l5.91 1.513a2.285 2.285 0 1 0 1.133-4.428ZM10.297 6.52l-5.91-1.513a2.285 2.285 0 1 0-1.134 4.428l5.911 1.512a2.285 2.285 0 1 0 1.133-4.427Zm1.51-5.9a2.285 2.285 0 1 0-1.133 4.428l2.214.566.566-2.214A2.285 2.285 0 0 0 11.807.62Z"/><defs><linearGradient id="a" x1=".489" x2="44.891" y1="-28.994" y2="21.968" gradientUnits="userSpaceOnUse"><stop stop-color="#3D65AF"/><stop offset=".188" stop-color="#2372B8"/><stop offset=".61" stop-color="#00B8BB"/></linearGradient></defs></svg>
